X: 5
T: Alexander's
R: hornpipe
M: 4/4
L: 1/8
K: Dmaj
(3gfe|dAFA Ddcd|edce Adef|~g3e fdcd|(3efe (3dcB A2(3gfe|
dAFA Ddcd|edce Adef|~g3e fdcd|(3gfe dcd2:|
AG|FAdA FAdB|GBdB GBdc|Acec Acec|dfaf (3gfe dA|
FAdA FAdB|GBdB GBdc|Acef gecd|(3efe dcd2:|


Tune 666	Setting 26700

